lib/flags/ls-lesotho.svg

<svg xmlns="http://www.w3.org/2000/svg" fill="none" aria-hidden="true" viewBox="0 0 42 30"><g id="Country=LS - Lesotho, Size=sm (36x24)" filter="url(#filter0_dd_91_26683)"><g clip-path="url(#clip0_91_26683)"><g id="flag"><mask id="mask0_91_26683" width="36" height="24" x="3" y="2" maskUnits="userSpaceOnUse" style="mask-type:alpha"><rect id="mask" width="36" height="24" x="3" y="2" fill="white"/></mask><g mask="url(#mask0_91_26683)"><g id="contents"><path id="bottom" fill="#55BA07" fill-rule="evenodd" d="M3 18H39V26H3V18Z" clip-rule="evenodd"/><path id="middle" fill="#F7FCFF" fill-rule="evenodd" d="M3 10H39V18H3V10Z" clip-rule="evenodd"/><path id="top" fill="#3D58DB" fill-rule="evenodd" d="M3 2H39V10H3V2Z" clip-rule="evenodd"/><g id="mark"><path id="Path 114" fill="#1D1D1D" fill-rule="evenodd" d="M20.1562 10.2404C19.5682 10.3808 19.2577 10.742 19.2577 11.3811C19.2577 12.1115 19.6612 12.7971 20.1562 13.1507V10.2404ZM21.5625 13.1311C22.0438 12.7726 22.4307 12.0998 22.4307 11.383C22.4307 10.7623 22.125 10.4027 21.5625 10.2534V13.1311ZM21.4912 9.72782C22.4243 9.90465 23.1021 10.4638 23.1021 11.3772C23.1021 12.0358 22.7497 12.8365 22.2032 13.3859L24.9411 15.7729L25.6165 15.5753L26.625 16.9349C26.625 16.9349 24.0758 18.0002 20.9251 18.0002C17.7744 18.0002 15.375 16.9349 15.375 16.9349L16.2336 15.7729L16.9269 15.975L19.4671 13.4273C18.8968 12.8772 18.5262 12.0525 18.5262 11.3772C18.5262 10.4317 19.2524 9.86583 20.2362 9.71061C20.3538 9.48644 20.5887 9.3335 20.8594 9.3335C21.1369 9.3335 21.3769 9.4943 21.4912 9.72782ZM16.5018 16.2965L16.2166 16.649H16.7718L16.5018 16.2965ZM16.827 16.7881L16.3367 16.8758L16.827 17.0276V16.7881ZM17.0772 16.2805L17.3279 16.8007L17.9506 16.6497L17.8271 16.4406L17.0772 16.2805ZM18.4314 17.3181L17.5169 17.1578L17.4123 17.0016L18.1019 16.8681L18.4314 17.3181ZM18.4847 16.5735L18.769 17.0281L19.3939 16.8589L19.22 16.6552L18.4847 16.5735ZM18.9972 17.4088L18.8853 17.2207L19.5769 17.0566L19.9749 17.4889L18.9972 17.4088ZM20.2886 17.0966L21.1799 16.8871L21.0703 16.7073H19.9135L20.2886 17.0966ZM20.6082 17.4971L20.4666 17.3025L21.3227 17.0534L21.7768 17.4971H20.6082ZM21.6913 16.721L21.9651 17.0192L22.7064 16.7907L22.6135 16.6351L21.6913 16.721ZM23.3002 17.3408L22.3036 17.4393L22.157 17.2193L22.9107 16.9993L23.3002 17.3408ZM23.2371 16.5771L23.5162 16.8822L24.1853 16.5771L23.9997 16.4855L23.2371 16.5771ZM23.8159 17.2588L23.6948 17.0938L24.3315 16.7542L24.6551 17.0938L23.8159 17.2588ZM24.4479 16.3099L24.8522 16.6528L25.2455 16.3099L25.1211 16.1703L24.4479 16.3099ZM25.0888 16.7705L25.4185 16.4806L25.6552 16.7705L25.0888 16.9324V16.7705Z" clip-rule="evenodd"/></g></g></g></g></g></g><defs><filter id="filter0_dd_91_26683" width="42" height="30" x="0" y="0" color-interpolation-filters="sRGB" filterUnits="userSpaceOnUse"><feFlood flood-opacity="0" result="BackgroundImageFix"/><feColorMatrix in="SourceAlpha" result="hardAlpha" values="0 0 0 0 0 0 0 0 0 0 0 0 0 0 0 0 0 0 127 0"/><feOffset dy="1"/><feGaussianBlur stdDeviation="1"/><feColorMatrix values="0 0 0 0 0.0627451 0 0 0 0 0.0941176 0 0 0 0 0.156863 0 0 0 0.06 0"/><feBlend in2="BackgroundImageFix" result="effect1_dropShadow_91_26683"/><feColorMatrix in="SourceAlpha" result="hardAlpha" values="0 0 0 0 0 0 0 0 0 0 0 0 0 0 0 0 0 0 127 0"/><feOffset dy="1"/><feGaussianBlur stdDeviation="1.5"/><feColorMatrix values="0 0 0 0 0.0627451 0 0 0 0 0.0941176 0 0 0 0 0.156863 0 0 0 0.1 0"/><feBlend in2="effect1_dropShadow_91_26683" result="effect2_dropShadow_91_26683"/><feBlend in="SourceGraphic" in2="effect2_dropShadow_91_26683" result="shape"/></filter><clipPath id="clip0_91_26683"><rect width="36" height="24" x="3" y="2" fill="white" rx="2"/></clipPath></defs></svg>

<svg xmlns="http://www.w3.org/2000/svg" fill="none" aria-hidden="true" viewBox="0 0 42 30"><g filter="url(#a)"><g clip-path="url(#b)"><mask id="c" width="36" height="24" x="3" y="2" maskUnits="userSpaceOnUse" style="mask-type:alpha"><path fill="#fff" d="M3 2h36v24H3z"/></mask><g fill-rule="evenodd" clip-rule="evenodd" mask="url(#c)"><path fill="#55BA07" d="M3 18h36v8H3v-8Z"/><path fill="#F7FCFF" d="M3 10h36v8H3v-8Z"/><path fill="#3D58DB" d="M3 2h36v8H3V2Z"/><path fill="#1D1D1D" d="M20.156 10.24c-.588.14-.898.502-.898 1.141 0 .73.403 1.416.898 1.77v-2.91Zm1.407 2.891a2.258 2.258 0 0 0 .868-1.748c0-.62-.306-.98-.869-1.13v2.878Zm-.072-3.403c.933.177 1.611.736 1.611 1.65 0 .658-.352 1.458-.899 2.008l2.738 2.387.675-.198 1.009 1.36S24.075 18 20.925 18c-3.15 0-5.55-1.065-5.55-1.065l.859-1.162.693.202 2.54-2.548c-.57-.55-.94-1.374-.94-2.05 0-.945.725-1.511 1.71-1.666a.703.703 0 0 1 1.254.017Zm-4.99 6.569-.284.352h.555l-.27-.352Zm.326.491-.49.088.49.152v-.24Zm.25-.508.25.52.624-.15-.124-.21-.75-.16Zm1.354 1.038-.914-.16-.105-.156.69-.134.33.45Zm.054-.745.284.455.625-.17-.174-.203-.735-.082Zm.512.836-.112-.188.692-.164.398.432-.978-.08Zm1.292-.312.89-.21-.109-.18h-1.157l.376.39Zm.32.4-.142-.195.856-.249.454.444h-1.169Zm1.082-.776.274.298.741-.228-.093-.156-.922.086Zm1.61.62-.997.098-.147-.22.754-.22.39.342Zm-.064-.764.28.305.668-.305-.185-.092-.763.092Zm.579.682-.121-.165.636-.34.324.34-.84.165Zm.632-.95.404.344.393-.343-.124-.14-.673.14Zm.64.461.33-.29.237.29-.566.162v-.162Z"/></g></g></g><defs><clipPath id="b"><rect width="36" height="24" x="3" y="2" fill="#fff" rx="2"/></clipPath><filter id="a" width="42" height="30" x="0" y="0" color-interpolation-filters="sRGB" filterUnits="userSpaceOnUse"><feFlood flood-opacity="0" result="BackgroundImageFix"/><feColorMatrix in="SourceAlpha" result="hardAlpha" values="0 0 0 0 0 0 0 0 0 0 0 0 0 0 0 0 0 0 127 0"/><feOffset dy="1"/><feGaussianBlur stdDeviation="1"/><feColorMatrix values="0 0 0 0 0.0627451 0 0 0 0 0.0941176 0 0 0 0 0.156863 0 0 0 0.06 0"/><feBlend in2="BackgroundImageFix" result="effect1_dropShadow_91_26683"/><feColorMatrix in="SourceAlpha" result="hardAlpha" values="0 0 0 0 0 0 0 0 0 0 0 0 0 0 0 0 0 0 127 0"/><feOffset dy="1"/><feGaussianBlur stdDeviation="1.5"/><feColorMatrix values="0 0 0 0 0.0627451 0 0 0 0 0.0941176 0 0 0 0 0.156863 0 0 0 0.1 0"/><feBlend in2="effect1_dropShadow_91_26683" result="effect2_dropShadow_91_26683"/><feBlend in="SourceGraphic" in2="effect2_dropShadow_91_26683" result="shape"/></filter></defs></svg>
